src/images/chainlink.svg

<svg width="384" height="80" viewBox="0 0 384 80" fill="none" xmlns="http://www.w3.org/2000/svg">
<path d="M50 23.3333L60 23.3333C62.1887 23.3333 64.356 23.7643 66.3781 24.6019C68.4002 25.4395 70.2375 26.6672 71.7851 28.2148C73.3328 29.7624 74.5604 31.5998 75.398 33.6219C76.2356 35.644 76.6667 37.8112 76.6667 39.9999C76.6667 42.1886 76.2356 44.3559 75.398 46.378C74.5604 48.4001 73.3328 50.2374 71.7851 51.785C70.2375 53.3327 68.4002 54.5603 66.3781 55.3979C64.356 56.2355 62.1887 56.6666 60 56.6666H50M30 56.6666H20C17.8113 56.6666 15.644 56.2355 13.6219 55.3979C11.5998 54.5603 9.76253 53.3327 8.21488 51.785C5.08928 48.6594 3.33333 44.4202 3.33333 39.9999C3.33333 35.5796 5.08928 31.3404 8.21488 28.2148C11.3405 25.0892 15.5797 23.3333 20 23.3333H30" stroke="#141414" stroke-width="2" stroke-linecap="round" stroke-linejoin="round"/>
<path d="M26.6667 40H53.3333" stroke="#141414" stroke-width="2" stroke-linecap="round" stroke-linejoin="round"/>
<path d="M122 23.3333L132 23.3333C134.189 23.3333 136.356 23.7643 138.378 24.6019C140.4 25.4395 142.237 26.6672 143.785 28.2148C145.333 29.7624 146.56 31.5998 147.398 33.6219C148.236 35.644 148.667 37.8112 148.667 39.9999C148.667 42.1886 148.236 44.3559 147.398 46.378C146.56 48.4001 145.333 50.2374 143.785 51.785C142.237 53.3327 140.4 54.5603 138.378 55.3979C136.356 56.2355 134.189 56.6666 132 56.6666H122M102 56.6666H92C89.8113 56.6666 87.644 56.2355 85.6219 55.3979C83.5998 54.5603 81.7625 53.3327 80.2149 51.785C77.0893 48.6594 75.3333 44.4202 75.3333 39.9999C75.3333 35.5796 77.0893 31.3404 80.2149 28.2148C83.3405 25.0892 87.5797 23.3333 92 23.3333H102" stroke="#141414" stroke-width="2" stroke-linecap="round" stroke-linejoin="round"/>
<path d="M98.6667 40H125.333" stroke="#141414" stroke-width="2" stroke-linecap="round" stroke-linejoin="round"/>
<path d="M194 23.3333L204 23.3333C206.189 23.3333 208.356 23.7643 210.378 24.6019C212.4 25.4395 214.237 26.6672 215.785 28.2148C217.333 29.7624 218.56 31.5998 219.398 33.6219C220.236 35.644 220.667 37.8112 220.667 39.9999C220.667 42.1886 220.236 44.3559 219.398 46.378C218.56 48.4001 217.333 50.2374 215.785 51.785C214.237 53.3327 212.4 54.5603 210.378 55.3979C208.356 56.2355 206.189 56.6666 204 56.6666H194M174 56.6666H164C161.811 56.6666 159.644 56.2355 157.622 55.3979C155.6 54.5603 153.763 53.3327 152.215 51.785C149.089 48.6594 147.333 44.4202 147.333 39.9999C147.333 35.5796 149.089 31.3404 152.215 28.2148C155.34 25.0892 159.58 23.3333 164 23.3333H174" stroke="#141414" stroke-width="2" stroke-linecap="round" stroke-linejoin="round"/>
<path d="M170.667 40H197.333" stroke="#141414" stroke-width="2" stroke-linecap="round" stroke-linejoin="round"/>
<path d="M244 39C243.448 39 243 39.4477 243 40C243 40.5523 243.448 41 244 41V39ZM284 40L274 34.2265V45.7735L284 40ZM244 41H275V39H244V41Z" fill="#005AE2"/>
<path d="M354 23.3333L364 23.3333C366.189 23.3333 368.356 23.7643 370.378 24.6019C372.4 25.4395 374.237 26.6672 375.785 28.2148C377.333 29.7624 378.56 31.5998 379.398 33.6219C380.236 35.644 380.667 37.8112 380.667 39.9999C380.667 42.1886 380.236 44.3559 379.398 46.378C378.56 48.4001 377.333 50.2374 375.785 51.785C374.237 53.3327 372.4 54.5603 370.378 55.3979C368.356 56.2355 366.189 56.6666 364 56.6666H354M334 56.6666H324C321.811 56.6666 319.644 56.2355 317.622 55.3979C315.6 54.5603 313.763 53.3327 312.215 51.785C309.089 48.6594 307.333 44.4202 307.333 39.9999C307.333 35.5796 309.089 31.3404 312.215 28.2148C315.34 25.0892 319.58 23.3333 324 23.3333H334" stroke="#141414" stroke-width="2" stroke-linecap="round" stroke-linejoin="round"/>
<path d="M330.667 40H357.333" stroke="#141414" stroke-width="2" stroke-linecap="round" stroke-linejoin="round"/>
</svg>

<svg width="384" height="80" fill="none" xmlns="http://www.w3.org/2000/svg"><path d="M50 23.333h10a16.666 16.666 0 1 1 0 33.334H50m-20 0H20a16.667 16.667 0 1 1 0-33.334h10M26.667 40h26.666" stroke="#141414" stroke-width="2" stroke-linecap="round" stroke-linejoin="round"/><path d="M122 23.333h10A16.664 16.664 0 0 1 148.667 40a16.66 16.66 0 0 1-4.882 11.785A16.67 16.67 0 0 1 132 56.667h-10m-20 0H92a16.667 16.667 0 1 1 0-33.334h10M98.667 40h26.666" stroke="#141414" stroke-width="2" stroke-linecap="round" stroke-linejoin="round"/><path d="M194 23.333h10A16.664 16.664 0 0 1 220.667 40a16.66 16.66 0 0 1-4.882 11.785A16.67 16.67 0 0 1 204 56.667h-10m-20 0h-10A16.665 16.665 0 0 1 147.333 40 16.665 16.665 0 0 1 164 23.333h10M170.667 40h26.666" stroke="#141414" stroke-width="2" stroke-linecap="round" stroke-linejoin="round"/><path d="M244 39a1 1 0 0 0 0 2v-2Zm40 1-10-5.773v11.547L284 40Zm-40 1h31v-2h-31v2Z" fill="#005AE2"/><path d="M354 23.333h10A16.664 16.664 0 0 1 380.667 40a16.66 16.66 0 0 1-4.882 11.785A16.67 16.67 0 0 1 364 56.667h-10m-20 0h-10A16.665 16.665 0 0 1 307.333 40 16.665 16.665 0 0 1 324 23.333h10M330.667 40h26.666" stroke="#141414" stroke-width="2" stroke-linecap="round" stroke-linejoin="round"/></svg>
